svgs/sharp-light/rectangles-mixed.svg

<svg xmlns="http://www.w3.org/2000/svg" viewBox="0 0 576 512"><!--! Font Awesome Pro 6.6.0 by @fontawesome - https://fontawesome.com License - https://fontawesome.com/license (Commercial License) Copyright 2024 Fonticons, Inc. --><path d="M288 64l0 160L32 224 32 64l256 0zM32 32L0 32 0 64 0 224l0 32 32 0 256 0 32 0 0-32 0-160 0-32-32 0L32 32zM544 64l0 288-128 0 0-288 128 0zM416 32l-32 0 0 32 0 288 0 32 32 0 128 0 32 0 0-32 0-288 0-32-32 0L416 32zM96 336l208 0 0 112L96 448l0-112zM64 304l0 32 0 112 0 32 32 0 208 0 32 0 0-32 0-112 0-32-32 0L96 304l-32 0z"/></svg>

<svg xmlns="http://www.w3.org/2000/svg" viewBox="0 0 576 512"><!--! Font Awesome Pro 6.4.2 by @fontawesome - https://fontawesome.com License - https://fontawesome.com/license (Commercial License) Copyright 2023 Fonticons, Inc. --><path d="M288 64V224H32V64H288zM32 32H0V64 224v32H32 288h32V224 64 32H288 32zM544 64V352H416V64H544zM416 32H384V64 352v32h32H544h32V352 64 32H544 416zM96 336H304V448H96V336zM64 304v32V448v32H96 304h32V448 336 304H304 96 64z"/></svg>
